X:1
T: Alston Hornpipe
N:
C:
S:
A:
O:
R:
M:4/4
K:G
I:speed 232
%W:
% voice 1 (1 lines, 48 notes)
K:G
M:4/4
L:1/16
d2 c2 |B2 d2 g8 b2 g2 |f2 a2 c'8 a2 b2 |c'2 a2 b2 g2 a2 f2 g2 b2 |a2 f2 d8 d2 c2 |B2 d2 g8 b2 a2 |f2 a2 c8 e2 c2 |B2 G2 c2 A2 B2 G2 A2 F2 |G4 g4 G4 d2 c2 |
%W:
% voice 1 (1 lines, 46 notes)
B2 d2 g8 b2 g2 |f2 a2 c'8 a2 b2 |c'2 a2 b2 g2 a2 f2 g2 b2 |a2 f2 d8 d2 c2 |B2 d2 g8 b2 a2 |f2 a2 c8 e2 c2 |B2 G2 c2 A2 B2 G2 A2 F2 |G4 g4 G4 d2 c2 |
%W:
% voice 1 (1 lines, 53 notes)
B2 d2 g2 d2 b2 d2 g2 B2 |e2 c2 G2 E2 C4 e2 d2 |^c2 e2 a2 e2 =c'2 e2 a2 e2 |f2 d2 A2 F2 D4 d2 c2 |B2 d2 g8 b2 g2 |f2 a2 c8 e2 c2 |B2 G2 c2 A2 B2 G2 A2 F2 |G4 B4 G4 d2 c2 |
%W:
% voice 1 (1 lines, 51 notes)
B2 d2 g2 d2 b2 d2 g2 B2 |e2 c2 G2 E2 C4 e2 d2 |^c2 e2 a2 e2 =c'2 e2 a2 e2 |f2 d2 A2 F2 D4 d2 c2 |B2 d2 g8 b2 g2 |f2 a2 c8 e2 c2 |B2 G2 c2 A2 B2 G2 A2 F2 |G4 B4 G4 ||
